src/apps/scalable/ADLplug.svg

<?xml version="1.0" encoding="UTF-8" standalone="no"?>
<svg
   xmlns:dc="http://purl.org/dc/elements/1.1/"
   xmlns:cc="http://creativecommons.org/ns#"
   xmlns:rdf="http://www.w3.org/1999/02/22-rdf-syntax-ns#"
   xmlns:svg="http://www.w3.org/2000/svg"
   xmlns="http://www.w3.org/2000/svg"
   xmlns:xlink="http://www.w3.org/1999/xlink"
   xmlns:sodipodi="http://sodipodi.sourceforge.net/DTD/sodipodi-0.dtd"
   xmlns:inkscape="http://www.inkscape.org/namespaces/inkscape"
   width="128"
   height="128"
   viewBox="0 0 33.866666 33.866668"
   version="1.1"
   id="svg1443"
   inkscape:version="1.0.2 (e86c870879, 2021-01-15)"
   sodipodi:docname="ADLplug.svg">
  <defs
     id="defs1437">
    <linearGradient
       inkscape:collect="always"
       id="linearGradient892">
      <stop
         style="stop-color:#ffffff;stop-opacity:1;"
         offset="0"
         id="stop888" />
      <stop
         style="stop-color:#7b65e2;stop-opacity:1"
         offset="1"
         id="stop890" />
    </linearGradient>
    <linearGradient
       gradientTransform="matrix(0.97573206,0,0,0.97573206,-111.76517,-37.182508)"
       gradientUnits="userSpaceOnUse"
       y2="70.679932"
       x2="132.21078"
       y1="42.151531"
       x1="132.21078"
       id="linearGradient1632"
       xlink:href="#linearGradient1630"
       inkscape:collect="always" />
    <linearGradient
       id="linearGradient1630"
       inkscape:collect="always">
      <stop
         id="stop1626"
         offset="0"
         style="stop-color:#d27cef;stop-opacity:1" />
      <stop
         id="stop1628"
         offset="1"
         style="stop-color:#565bdc;stop-opacity:1" />
    </linearGradient>
    <filter
       color-interpolation-filters="sRGB"
       height="1.1311001"
       width="1.1106"
       y="-0.065563001"
       x="-0.055319"
       id="c-9">
      <feGaussianBlur
         id="feGaussianBlur1093"
         stdDeviation="1.1062912" />
    </filter>
    <linearGradient
       gradientUnits="userSpaceOnUse"
       gradientTransform="matrix(0.13235,0,0,0.13075,-32.379,1.0873)"
       y2="269.48999"
       y1="235.14999"
       x2="657.65002"
       x1="319.20999"
       id="a-12">
      <stop
         id="stop1076"
         offset="0"
         stop-color="#e54c18" />
      <stop
         id="stop1078"
         offset="1"
         stop-color="#fec350" />
    </linearGradient>
    <clipPath
       clipPathUnits="userSpaceOnUse"
       id="clipPath918">
      <path
         d="m 63.330184,21.99315 c -2.863071,0.08035 -5.415099,1.826396 -6.52738,4.465912 L 27.582969,95.859047 c -2.177089,5.180333 2.064528,10.776653 7.640246,10.080403 l 28.313853,-3.53848 28.313851,3.53848 c 5.575718,0.69625 9.817341,-4.90007 7.640235,-10.080403 L 70.271324,26.459062 c -1.170693,-2.778251 -3.927639,-4.55207 -6.94114,-4.465912 z"
         style="fill:#40d46d;fill-opacity:0.759895;stroke-width:1.82631"
         id="path920" />
    </clipPath>
    <linearGradient
       inkscape:collect="always"
       xlink:href="#linearGradient892"
       id="linearGradient894"
       x1="69.540306"
       y1="37.161552"
       x2="72.930023"
       y2="183.6129"
       gradientUnits="userSpaceOnUse" />
  </defs>
  <sodipodi:namedview
     id="base"
     pagecolor="#ffffff"
     bordercolor="#666666"
     borderopacity="1.0"
     inkscape:pageopacity="0.0"
     inkscape:pageshadow="2"
     inkscape:zoom="11.2"
     inkscape:cx="67.846862"
     inkscape:cy="88.462999"
     inkscape:document-units="mm"
     inkscape:current-layer="layer1"
     inkscape:document-rotation="0"
     showgrid="false"
     units="px"
     inkscape:window-width="1920"
     inkscape:window-height="1028"
     inkscape:window-x="0"
     inkscape:window-y="24"
     inkscape:window-maximized="1" />
  <metadata
     id="metadata1440">
    <rdf:RDF>
      <cc:Work
         rdf:about="">
        <dc:format>image/svg+xml</dc:format>
        <dc:type
           rdf:resource="http://purl.org/dc/dcmitype/StillImage" />
        <dc:title></dc:title>
      </cc:Work>
    </rdf:RDF>
  </metadata>
  <g
     inkscape:label="Capa 1"
     inkscape:groupmode="layer"
     id="layer1">
    <g
       style="opacity:0.295"
       transform="matrix(0.97573206,0,0,0.97573206,-65.737228,-37.182508)"
       id="g1702">
      <rect
         ry="6.6098609"
         rx="6.6098609"
         y="40.709618"
         x="69.839508"
         height="29.810888"
         width="29.810888"
         id="rect1634"
         style="fill:none;fill-opacity:1;stroke:#000000;stroke-width:0.1;stroke-linecap:round;stroke-linejoin:round;stroke-miterlimit:4;stroke-dasharray:none;stroke-opacity:0.02" />
      <rect
         style="fill:none;fill-opacity:1;stroke:#000000;stroke-width:0.2;stroke-linecap:round;stroke-linejoin:round;stroke-miterlimit:4;stroke-dasharray:none;stroke-opacity:0.02"
         id="rect1638"
         width="29.810888"
         height="29.810888"
         x="69.839508"
         y="40.709618"
         rx="6.6098609"
         ry="6.6098609" />
      <rect
         ry="6.6098609"
         rx="6.6098609"
         y="40.709618"
         x="69.839508"
         height="29.810888"
         width="29.810888"
         id="rect1640"
         style="fill:none;fill-opacity:1;stroke:#000000;stroke-width:0.3;stroke-linecap:round;stroke-linejoin:round;stroke-miterlimit:4;stroke-dasharray:none;stroke-opacity:0.02" />
      <rect
         style="fill:none;fill-opacity:1;stroke:#000000;stroke-width:0.4;stroke-linecap:round;stroke-linejoin:round;stroke-miterlimit:4;stroke-dasharray:none;stroke-opacity:0.02"
         id="rect1642"
         width="29.810888"
         height="29.810888"
         x="69.839508"
         y="40.709618"
         rx="6.6098609"
         ry="6.6098609" />
      <rect
         ry="6.6098609"
         rx="6.6098609"
         y="40.709618"
         x="69.839508"
         height="29.810888"
         width="29.810888"
         id="rect1644"
         style="fill:none;fill-opacity:1;stroke:#000000;stroke-width:0.5;stroke-linecap:round;stroke-linejoin:round;stroke-miterlimit:4;stroke-dasharray:none;stroke-opacity:0.02" />
      <rect
         style="fill:none;fill-opacity:1;stroke:#000000;stroke-width:0.6;stroke-linecap:round;stroke-linejoin:round;stroke-miterlimit:4;stroke-dasharray:none;stroke-opacity:0.02"
         id="rect1646"
         width="29.810888"
         height="29.810888"
         x="69.839508"
         y="40.709618"
         rx="6.6098609"
         ry="6.6098609" />
      <rect
         ry="6.6098609"
         rx="6.6098609"
         y="40.709618"
         x="69.839508"
         height="29.810888"
         width="29.810888"
         id="rect1648"
         style="fill:none;fill-opacity:1;stroke:#000000;stroke-width:0.7;stroke-linecap:round;stroke-linejoin:round;stroke-miterlimit:4;stroke-dasharray:none;stroke-opacity:0.02" />
      <rect
         style="fill:none;fill-opacity:1;stroke:#000000;stroke-width:0.8;stroke-linecap:round;stroke-linejoin:round;stroke-miterlimit:4;stroke-dasharray:none;stroke-opacity:0.02"
         id="rect1650"
         width="29.810888"
         height="29.810888"
         x="69.839508"
         y="40.709618"
         rx="6.6098609"
         ry="6.6098609" />
      <rect
         ry="6.6098609"
         rx="6.6098609"
         y="40.709618"
         x="69.839508"
         height="29.810888"
         width="29.810888"
         id="rect1652"
         style="fill:none;fill-opacity:1;stroke:#000000;stroke-width:1;stroke-linecap:round;stroke-linejoin:round;stroke-miterlimit:4;stroke-dasharray:none;stroke-opacity:0.02" />
      <rect
         style="fill:none;fill-opacity:1;stroke:#000000;stroke-width:1.2;stroke-linecap:round;stroke-linejoin:round;stroke-miterlimit:4;stroke-dasharray:none;stroke-opacity:0.02"
         id="rect1654"
         width="29.810888"
         height="29.810888"
         x="69.839508"
         y="40.709618"
         rx="6.6098609"
         ry="6.6098609" />
      <rect
         ry="6.6098609"
         rx="6.6098609"
         y="40.709618"
         x="69.839508"
         height="29.810888"
         width="29.810888"
         id="rect1656"
         style="fill:none;fill-opacity:1;stroke:#000000;stroke-width:1.4;stroke-linecap:round;stroke-linejoin:round;stroke-miterlimit:4;stroke-dasharray:none;stroke-opacity:0.02" />
      <rect
         style="fill:none;fill-opacity:1;stroke:#000000;stroke-width:1.6;stroke-linecap:round;stroke-linejoin:round;stroke-miterlimit:4;stroke-dasharray:none;stroke-opacity:0.02"
         id="rect1658"
         width="29.810888"
         height="29.810888"
         x="69.839508"
         y="40.709618"
         rx="6.6098609"
         ry="6.6098609" />
      <rect
         ry="6.6098609"
         rx="6.6098609"
         y="40.709618"
         x="69.839508"
         height="29.810888"
         width="29.810888"
         id="rect1660"
         style="fill:none;fill-opacity:1;stroke:#000000;stroke-width:1.8;stroke-linecap:round;stroke-linejoin:round;stroke-miterlimit:4;stroke-dasharray:none;stroke-opacity:0.02" />
      <rect
         style="fill:none;fill-opacity:1;stroke:#000000;stroke-width:2;stroke-linecap:round;stroke-linejoin:round;stroke-miterlimit:4;stroke-dasharray:none;stroke-opacity:0.02"
         id="rect1662"
         width="29.810888"
         height="29.810888"
         x="69.839508"
         y="40.709618"
         rx="6.6098609"
         ry="6.6098609" />
      <rect
         ry="6.6098609"
         rx="6.6098609"
         y="40.709618"
         x="69.839508"
         height="29.810888"
         width="29.810888"
         id="rect1664"
         style="fill:none;fill-opacity:1;stroke:#000000;stroke-width:2.2;stroke-linecap:round;stroke-linejoin:round;stroke-miterlimit:4;stroke-dasharray:none;stroke-opacity:0.02" />
      <rect
         style="fill:none;fill-opacity:1;stroke:#000000;stroke-width:2.6;stroke-linecap:round;stroke-linejoin:round;stroke-miterlimit:4;stroke-dasharray:none;stroke-opacity:0.02"
         id="rect1666"
         width="29.810888"
         height="29.810888"
         x="69.839508"
         y="40.709618"
         rx="6.6098609"
         ry="6.6098609" />
      <rect
         ry="6.6098609"
         rx="6.6098609"
         y="40.709618"
         x="69.839508"
         height="29.810888"
         width="29.810888"
         id="rect1668"
         style="fill:none;fill-opacity:1;stroke:#000000;stroke-width:3;stroke-linecap:round;stroke-linejoin:round;stroke-miterlimit:4;stroke-dasharray:none;stroke-opacity:0.02" />
      <rect
         style="fill:none;fill-opacity:1;stroke:#000000;stroke-width:3.4;stroke-linecap:round;stroke-linejoin:round;stroke-miterlimit:4;stroke-dasharray:none;stroke-opacity:0.02"
         id="rect1670"
         width="29.810888"
         height="29.810888"
         x="69.839508"
         y="40.709618"
         rx="6.6098609"
         ry="6.6098609" />
      <rect
         ry="6.6098609"
         rx="6.6098609"
         y="40.709618"
         x="69.839508"
         height="29.810888"
         width="29.810888"
         id="rect1672"
         style="fill:none;fill-opacity:1;stroke:#000000;stroke-width:3.8;stroke-linecap:round;stroke-linejoin:round;stroke-miterlimit:4;stroke-dasharray:none;stroke-opacity:0.02" />
      <rect
         style="fill:none;fill-opacity:1;stroke:#000000;stroke-width:4.2;stroke-linecap:round;stroke-linejoin:round;stroke-miterlimit:4;stroke-dasharray:none;stroke-opacity:0.02"
         id="rect1674"
         width="29.810888"
         height="29.810888"
         x="69.839508"
         y="40.709618"
         rx="6.6098609"
         ry="6.6098609" />
      <rect
         ry="6.6098609"
         rx="6.6098609"
         y="40.709618"
         x="69.839508"
         height="29.810888"
         width="29.810888"
         id="rect1676"
         style="fill:none;fill-opacity:1;stroke:#000000;stroke-width:4.6;stroke-linecap:round;stroke-linejoin:round;stroke-miterlimit:4;stroke-dasharray:none;stroke-opacity:0.02" />
      <rect
         style="fill:none;fill-opacity:1;stroke:#000000;stroke-width:5;stroke-linecap:round;stroke-linejoin:round;stroke-miterlimit:4;stroke-dasharray:none;stroke-opacity:0.02"
         id="rect1678"
         width="29.810888"
         height="29.810888"
         x="69.839508"
         y="40.709618"
         rx="6.6098609"
         ry="6.6098609" />
    </g>
    <rect
       ry="6.4494534"
       rx="6.4494534"
       y="2.5391712"
       x="2.4074187"
       height="29.087439"
       width="29.087439"
       id="rect849"
       style="fill:url(#linearGradient1632);fill-opacity:1;stroke-width:2.68768;stroke-linecap:round;stroke-linejoin:round" />
    <path
       id="path896"
       style="font-style:normal;font-variant:normal;font-weight:bold;font-stretch:normal;font-size:12.1355px;line-height:1.25;font-family:Arimo;-inkscape-font-specification:'Arimo Bold';fill:#590690;fill-opacity:0.1790472;stroke-width:0.0606774"
       d="M 9.8240062,12.836852 7.2401843,22.679145 H 8.723298 l 0.6283854,-2.514576 h 2.6990596 l 0.628385,2.514576 h 1.467611 l -2.573486,-9.842293 z m 5.2828808,0 v 9.842293 h 2.865458 c 0.676912,0 1.27661,-0.199992 1.799373,-0.600481 0.526115,-0.40049 0.931624,-0.977784 1.216464,-1.732194 0.28819,-0.759066 0.432015,-1.646659 0.432015,-2.661853 0,-1.560044 -0.326332,-2.756386 -0.979785,-3.589961 -0.653455,-0.838233 -1.576884,-1.257804 -2.769857,-1.257804 z m 7.434171,0 v 9.842293 h 5.2834 v -1.592668 h -3.800286 v -8.249625 z m -11.842171,1.516186 0.321428,1.431954 0.698665,2.828768 H 9.6834462 c 0.5294638,-2.142151 0.8176298,-3.319936 0.8645458,-3.534151 0.04691,-0.214214 0.09728,-0.456474 0.150895,-0.726571 z M 16.59,14.429518 h 1.050582 c 0.73388,0 1.298531,0.27937 1.693954,0.838192 0.395424,0.554165 0.592729,1.359802 0.592729,2.416906 0,1.047792 -0.187439,1.877141 -0.562757,2.487187 -0.375317,0.610048 -0.881554,0.914673 -1.518253,0.914673 H 16.59 Z" />
    <path
       id="path877"
       style="font-style:normal;font-variant:normal;font-weight:bold;font-stretch:normal;font-size:12.1355px;line-height:1.25;font-family:Arimo;-inkscape-font-specification:'Arimo Bold';stroke-width:0.229332;fill:url(#linearGradient894);fill-opacity:1"
       d="M 34.933594 45.964844 L 25.167969 83.164062 L 30.773438 83.164062 L 33.148438 73.660156 L 43.349609 73.660156 L 45.724609 83.164062 L 51.271484 83.164062 L 41.544922 45.964844 L 34.933594 45.964844 z M 54.900391 45.964844 L 54.900391 83.164062 L 65.730469 83.164062 C 68.288876 83.164062 70.555452 82.408189 72.53125 80.894531 C 74.519715 79.380868 76.052348 77.198967 77.128906 74.347656 C 78.218128 71.478745 78.761719 68.124061 78.761719 64.287109 C 78.761719 58.390878 77.528341 53.869271 75.058594 50.71875 C 72.588844 47.550624 69.098719 45.964844 64.589844 45.964844 L 54.900391 45.964844 z M 82.998047 45.964844 L 82.998047 83.164062 L 102.9668 83.164062 L 102.9668 77.144531 L 88.603516 77.144531 L 88.603516 45.964844 L 82.998047 45.964844 z M 38.240234 51.695312 L 39.455078 57.107422 L 42.095703 67.798828 L 34.402344 67.798828 C 36.403471 59.702511 37.492602 55.251039 37.669922 54.441406 C 37.847225 53.631779 38.037576 52.716153 38.240234 51.695312 z M 60.505859 51.984375 L 64.476562 51.984375 C 67.250282 51.984375 69.384393 53.040263 70.878906 55.152344 C 72.373422 57.246827 73.119141 60.291753 73.119141 64.287109 C 73.119141 68.247266 72.41071 71.381812 70.992188 73.6875 C 69.573665 75.993191 67.660331 77.144531 65.253906 77.144531 L 60.505859 77.144531 L 60.505859 51.984375 z "
       transform="scale(0.26458333)" />
  </g>
</svg>

<?xml version="1.0" encoding="UTF-8"?>
<svg id="svg1443" width="128" height="128" version="1.1" viewBox="0 0 33.867 33.867" xmlns="http://www.w3.org/2000/svg" xmlns:cc="http://creativecommons.org/ns#" xmlns:dc="http://purl.org/dc/elements/1.1/" xmlns:rdf="http://www.w3.org/1999/02/22-rdf-syntax-ns#" xmlns:xlink="http://www.w3.org/1999/xlink">
 <defs id="defs1437">
  <linearGradient id="linearGradient1632" x1="132.21" x2="132.21" y1="42.152" y2="70.68" gradientTransform="matrix(.97573 0 0 .97573 -111.77 -37.183)" gradientUnits="userSpaceOnUse">
   <stop id="stop1626" stop-color="#d27cef" offset="0"/>
   <stop id="stop1628" stop-color="#565bdc" offset="1"/>
  </linearGradient>
  <linearGradient id="linearGradient894" x1="69.54" x2="72.93" y1="37.162" y2="183.61" gradientUnits="userSpaceOnUse">
   <stop id="stop888" stop-color="#fff" offset="0"/>
   <stop id="stop890" stop-color="#7b65e2" offset="1"/>
  </linearGradient>
 </defs>
 <metadata id="metadata1440">
  <rdf:RDF>
   <cc:Work rdf:about="">
    <dc:format>image/svg+xml</dc:format>
    <dc:type rdf:resource="http://purl.org/dc/dcmitype/StillImage"/>
    <dc:title/>
   </cc:Work>
  </rdf:RDF>
 </metadata>
 <g id="layer1">
  <g id="g1702" transform="matrix(.97573 0 0 .97573 -65.737 -37.183)" fill="none" opacity=".295" stroke="#000" stroke-linecap="round" stroke-linejoin="round" stroke-opacity=".02">
   <rect id="rect1634" x="69.84" y="40.71" width="29.811" height="29.811" rx="6.6099" ry="6.6099" stroke-width=".1"/>
   <rect id="rect1638" x="69.84" y="40.71" width="29.811" height="29.811" rx="6.6099" ry="6.6099" stroke-width=".2"/>
   <rect id="rect1640" x="69.84" y="40.71" width="29.811" height="29.811" rx="6.6099" ry="6.6099" stroke-width=".3"/>
   <rect id="rect1642" x="69.84" y="40.71" width="29.811" height="29.811" rx="6.6099" ry="6.6099" stroke-width=".4"/>
   <rect id="rect1644" x="69.84" y="40.71" width="29.811" height="29.811" rx="6.6099" ry="6.6099" stroke-width=".5"/>
   <rect id="rect1646" x="69.84" y="40.71" width="29.811" height="29.811" rx="6.6099" ry="6.6099" stroke-width=".6"/>
   <rect id="rect1648" x="69.84" y="40.71" width="29.811" height="29.811" rx="6.6099" ry="6.6099" stroke-width=".7"/>
   <rect id="rect1650" x="69.84" y="40.71" width="29.811" height="29.811" rx="6.6099" ry="6.6099" stroke-width=".8"/>
   <rect id="rect1652" x="69.84" y="40.71" width="29.811" height="29.811" rx="6.6099" ry="6.6099"/>
   <rect id="rect1654" x="69.84" y="40.71" width="29.811" height="29.811" rx="6.6099" ry="6.6099" stroke-width="1.2"/>
   <rect id="rect1656" x="69.84" y="40.71" width="29.811" height="29.811" rx="6.6099" ry="6.6099" stroke-width="1.4"/>
   <rect id="rect1658" x="69.84" y="40.71" width="29.811" height="29.811" rx="6.6099" ry="6.6099" stroke-width="1.6"/>
   <rect id="rect1660" x="69.84" y="40.71" width="29.811" height="29.811" rx="6.6099" ry="6.6099" stroke-width="1.8"/>
   <rect id="rect1662" x="69.84" y="40.71" width="29.811" height="29.811" rx="6.6099" ry="6.6099" stroke-width="2"/>
   <rect id="rect1664" x="69.84" y="40.71" width="29.811" height="29.811" rx="6.6099" ry="6.6099" stroke-width="2.2"/>
   <rect id="rect1666" x="69.84" y="40.71" width="29.811" height="29.811" rx="6.6099" ry="6.6099" stroke-width="2.6"/>
   <rect id="rect1668" x="69.84" y="40.71" width="29.811" height="29.811" rx="6.6099" ry="6.6099" stroke-width="3"/>
   <rect id="rect1670" x="69.84" y="40.71" width="29.811" height="29.811" rx="6.6099" ry="6.6099" stroke-width="3.4"/>
   <rect id="rect1672" x="69.84" y="40.71" width="29.811" height="29.811" rx="6.6099" ry="6.6099" stroke-width="3.8"/>
   <rect id="rect1674" x="69.84" y="40.71" width="29.811" height="29.811" rx="6.6099" ry="6.6099" stroke-width="4.2"/>
   <rect id="rect1676" x="69.84" y="40.71" width="29.811" height="29.811" rx="6.6099" ry="6.6099" stroke-width="4.6"/>
   <rect id="rect1678" x="69.84" y="40.71" width="29.811" height="29.811" rx="6.6099" ry="6.6099" stroke-width="5"/>
  </g>
  <rect id="rect849" x="2.4074" y="2.5392" width="29.087" height="29.087" rx="6.4495" ry="6.4495" fill="url(#linearGradient1632)" stroke-linecap="round" stroke-linejoin="round" stroke-width="2.6877"/>
  <path id="path896" d="m9.824 12.837-2.5838 9.8423h1.4831l0.62839-2.5146h2.6991l0.62838 2.5146h1.4676l-2.5735-9.8423zm5.2829 0v9.8423h2.8655c0.67691 0 1.2766-0.19999 1.7994-0.60048 0.52612-0.40049 0.93162-0.97778 1.2165-1.7322 0.28819-0.75907 0.43202-1.6467 0.43202-2.6619 0-1.56-0.32633-2.7564-0.97978-3.59-0.65346-0.83823-1.5769-1.2578-2.7699-1.2578zm7.4342 0v9.8423h5.2834v-1.5927h-3.8003v-8.2496zm-11.842 1.5162 0.32143 1.432 0.69866 2.8288h-2.0355c0.52946-2.1422 0.81763-3.3199 0.86455-3.5342 0.04691-0.21421 0.09728-0.45647 0.1509-0.72657zm5.8911 0.07648h1.0506c0.73388 0 1.2985 0.27937 1.694 0.83819 0.39542 0.55416 0.59273 1.3598 0.59273 2.4169 0 1.0478-0.18744 1.8771-0.56276 2.4872-0.37532 0.61005-0.88155 0.91467-1.5183 0.91467h-1.2563z" fill="#590690" fill-opacity=".17905" stroke-width=".060677"/>
  <path id="path877" transform="scale(.26458)" d="m34.934 45.965-9.7656 37.199h5.6055l2.375-9.5039h10.201l2.375 9.5039h5.5469l-9.7266-37.199h-6.6113zm19.967 0v37.199h10.83c2.5584 0 4.825-0.75587 6.8008-2.2695 1.9885-1.5137 3.5211-3.6956 4.5977-6.5469 1.0892-2.8689 1.6328-6.2236 1.6328-10.061 0-5.8962-1.2334-10.418-3.7031-13.568-2.4698-3.1681-5.9599-4.7539-10.469-4.7539h-9.6895zm28.098 0v37.199h19.969v-6.0195h-14.363v-31.18h-5.6055zm-44.758 5.7305 1.2148 5.4121 2.6406 10.691h-7.6934c2.0011-8.0963 3.0903-12.548 3.2676-13.357 0.1773-0.80963 0.36765-1.7253 0.57031-2.7461zm22.266 0.28906h3.9707c2.7737 0 4.9078 1.0559 6.4023 3.168 1.4945 2.0945 2.2402 5.1394 2.2402 9.1348 0 3.9602-0.70843 7.0947-2.127 9.4004-1.4185 2.3057-3.3319 3.457-5.7383 3.457h-4.748v-25.16z" fill="url(#linearGradient894)" stroke-width=".22933"/>
 </g>
</svg>
